X:6
T:The Sunshine Schottische
C:Gregory Jolivet
R:schottische
M:4/4
L:1/8
K:Dmaj
A2dc d3A- | ABAG F2D2 | E2dc d3G- | GAGF E2FG |
A2dc d3A- | ABAG F2D2 |1 E2dc d3G- | GAGF E2FG :|2 E2dc de2c- |c8 |:
f2ed A3B- | BAGF E2EF | GBAG A2FA | GFEG F2D2 |
f2ed A3B- | BAGF E2EF | GBAG A2FA | GFEF D4 :|
